X:1
T: Lady Ann Maitland
C:
R:Reel
Q: 232
K:G
M:4/4
L:1/8
|:d|ge dB G2 Gd|gd gb ae ef|gd ec Bc de|dc BA G2 Gd|
ge dB G2 Gd|gd gb ae ef|gd ec Bc de|dc BA G2 Gc|
B2 Gd Bd gd|B2 GB AD Dc|B2 Gd Bc de|dc BA G2 Gd|
B2 Gd Bd gd|B2 GB AD Dc|BA BG gb dc|Bd EF G2 G:|
